X:285
T: Din Tarrant's #1
S: "Johnny O'Leary of Sliabh Luachra" (#73)
Z: B.Black
L: 1/8
M: 2/4
Q: 270
R: polka
K: A
AB/c/ dA/d/|ea c2|ef/e/ d/e/d/B/|AB c/d/c/B/|
AB/c/ (3d/e/d/c/d/|ea ce|ef/e/ dB|c/B/A A2|
AB/c/ dA/d/|eA c2|ef/e/ dB|AB c/d/c/B/|
AB/c/ dc/d/|ea ce|ef/e/ dB|BA A2 ||
e2 ag/f/|ea c2|ef/e/ dB|AB c2|
ef/g/ ag/f/|eA cA|ef/e/ dB|c/B/A A2|
ef/g/ ag/f/|eA cA|ef/e/ d(3B/c/B/|AB c2|
ef/g/ ag/f/|ea ce|ef/e/ dB|c/B/A A2 ||
